images/btn1.svg

<?xml version="1.0" encoding="UTF-8"?>
<svg width="300px" height="57px" viewBox="0 0 300 57" version="1.1" xmlns="http://www.w3.org/2000/svg" xmlns:xlink="http://www.w3.org/1999/xlink">
    <!-- Generator: Sketch 47.1 (45422) - http://www.bohemiancoding.com/sketch -->
    <title>btn1</title>
    <desc>Created with Sketch.</desc>
    <defs></defs>
    <g id="лендинг" stroke="none" stroke-width="1" fill="none" fill-rule="evenodd">
        <g id="Sharpay-home-Copy" transform="translate(-301.000000, -1131.000000)" fill-rule="nonzero" fill="#FF9733">
            <g id="Group-50" transform="translate(301.000000, 1120.000000)">
                <g id="btn1" transform="translate(0.000000, 11.000000)">
                    <path d="M273.81,28.08 C272.892479,27.4585337 271.878936,26.9923037 270.81,26.7 L269.59,31.97 C269.485076,32.5364951 269.112457,33.0171734 268.59,33.26 C267.71944,33.6026701 266.78323,33.7461768 265.85,33.68 C265.073114,33.6825453 264.298353,33.5986968 263.54,33.43 C262.893824,33.2806934 262.261539,33.0766225 261.65,32.82 C261.14139,32.6305054 260.655139,32.3857034 260.2,32.09 C259.902412,31.8962882 259.618416,31.6824563 259.35,31.45 L259.28,31.45 L258.5,31.45 L257.33,36.45 L257.5,36.53 C258.551122,36.9980261 259.656219,37.3339216 260.79,37.53 C261.37,37.64 261.97,37.72 262.57,37.79 L261.72,41.46 L267.38,41.46 L268.24,37.73 C269.776843,37.5245363 271.256393,37.0109451 272.59,36.22 C274.332682,35.2407381 275.402408,33.3888481 275.38,31.39 C275.450627,30.0920543 274.85983,28.8464901 273.81,28.08 L273.81,28.08 Z" id="Shape"></path>
                    <path d="M107.23,22.85 C106.324021,22.8147632 105.433724,23.0938642 104.71,23.64 C104.070227,24.2266048 103.689057,25.0428848 103.65,25.91 L110.42,25.91 C110.423851,25.0926926 110.140731,24.2999569 109.62,23.67 C108.973958,23.0729611 108.1065,22.7753393 107.23,22.85 L107.23,22.85 Z" id="Shape"></path>
                    <path d="M291.28,0 L8.34,0 C3.73394519,0 -5.00206752e-15,3.73394519 -5.00206752e-15,8.34 L-5.00206752e-15,48.47 C-0.00265792393,50.6827193 0.87516457,52.8055756 2.4397945,54.3702055 C4.00442444,55.9348354 6.12728073,56.8126579 8.34,56.81 L291.28,56.81 C293.492719,56.8126579 295.615576,55.9348354 297.180205,54.3702055 C298.744835,52.8055756 299.622658,50.6827193 299.62,48.47 L299.62,8.34 C299.62,3.73394519 295.886055,0 291.28,0 L291.28,0 Z M32.9,36.21 C30.8512578,37.4462132 28.4797184,38.0417098 26.09,37.92 C24.6442136,37.9340985 23.2015425,37.7831213 21.79,37.47 C20.7194844,37.2406829 19.6743645,36.9057086 18.67,36.47 L18.53,36.4 L18.53,31.4 L19.37,31.4 L19.44,31.4 C19.71,31.59 20.04,31.81 20.44,32.04 C20.9287298,32.325613 21.4405179,32.5697995 21.97,32.77 C22.6178827,33.0304741 23.2870307,33.2345642 23.97,33.38 C24.731107,33.5525089 25.5096141,33.6363998 26.29,33.63 C27.0881613,33.6743459 27.8871376,33.5587494 28.64,33.29 C29.0195152,33.1735882 29.2815635,32.8268782 29.29,32.43 C29.3218894,32.1425958 29.1857118,31.8624591 28.94,31.71 C28.4044146,31.4458238 27.8308232,31.2669982 27.24,31.18 C26.82,31.0933333 26.26,30.9933333 25.56,30.88 C24.8869789,30.7806837 24.2194488,30.6471776 23.56,30.48 C22.1656125,30.1914504 20.8883012,29.4953679 19.89,28.48 C19.0682137,27.5179331 18.6333881,26.2847391 18.67,25.02 C18.6895116,23.2178944 19.633742,21.552272 21.17,20.61 C23.1764401,19.3686278 25.5137166,18.7686106 27.87,18.89 C29.157387,18.8842019 30.4415922,19.0183225 31.7,19.29 C32.679122,19.4872365 33.6369029,19.7785894 34.56,20.16 L34.71,20.22 L34.71,25.07 L33.9,25.07 L33.84,25.07 C32.9757924,24.4925636 32.0372312,24.035057 31.05,23.71 C30.032521,23.3625715 28.9651546,23.1835512 27.89,23.18 C27.1403206,23.157121 26.3932859,23.2793631 25.69,23.54 C24.91,23.85 24.91,24.24 24.91,24.37 C24.8899153,24.6619152 25.0129958,24.9453734 25.24,25.13 C25.8232495,25.4485459 26.4608353,25.6554221 27.12,25.74 L28.96,26.07 C29.62,26.18 30.3,26.32 30.96,26.49 C32.2622434,26.7650128 33.4509134,27.4273216 34.37,28.39 C35.126657,29.3046983 35.524742,30.4634101 35.49,31.65 C35.4819206,33.5179176 34.5001885,35.2463725 32.9,36.21 Z M56.81,37.43 L50.67,37.43 L50.67,28.43 C50.6729944,27.7318111 50.6362684,27.0340172 50.56,26.34 C50.5369939,25.8334024 50.4217749,25.3352497 50.22,24.87 C50.0388969,24.5468708 49.7583162,24.2908409 49.42,24.14 C48.9140459,23.9576423 48.377283,23.8761087 47.84,23.9 C47.3372357,23.9031235 46.837987,23.9840827 46.36,24.14 C45.8228938,24.3170346 45.3065479,24.5517373 44.82,24.84 L44.82,37.38 L38.69,37.38 L38.69,12.58 L44.82,12.58 L44.82,21.03 C45.606965,20.4321284 46.4550264,19.9192691 47.35,19.5 C48.3488923,19.0629087 49.4297706,18.8446872 50.52,18.86 C52.2339445,18.7666703 53.9089037,19.3938736 55.14,20.59 C56.3455407,22.0121949 56.9451475,23.8505103 56.81,25.71 L56.81,37.43 Z M78.18,37.43 L72.11,37.43 L72.11,35.82 L71.38,36.35 C70.9686471,36.6531937 70.5301093,36.9176555 70.07,37.14 C69.5029401,37.3973629 68.9094026,37.5918554 68.3,37.72 C67.6406064,37.8436965 66.9708837,37.9039715 66.3,37.9 C64.6968222,37.9432384 63.1387227,37.3665625 61.95,36.29 C60.7864919,35.2327286 60.1404409,33.7216262 60.18,32.15 C60.1356511,30.9887296 60.4536804,29.8424264 61.09,28.87 C61.7377315,27.9834952 62.6162923,27.2917151 63.63,26.87 C64.8869104,26.3444247 66.2145812,26.0074524 67.57,25.87 C69.04,25.68 70.57,25.53 72.14,25.44 C72.1659386,24.7422009 71.7722113,24.0964882 71.14,23.8 C70.056939,23.384069 68.8986337,23.2001029 67.74,23.26 C66.7551634,23.2784368 65.7782549,23.440132 64.84,23.74 C63.84,24.07 63.05,24.32 62.59,24.5 L61.74,24.5 L61.74,19.82 L61.93,19.82 C62.53,19.67 63.49,19.48 64.85,19.27 C66.1884594,19.0451475 67.5428093,18.9281049 68.9,18.92 C72.14,18.92 74.52,19.43 75.97,20.44 C77.5027794,21.5579314 78.3497548,23.3880032 78.21,25.28 L78.18,37.43 Z M96.07,25.24 L95.33,25.24 C94.9439327,25.1394376 94.5484913,25.079116 94.15,25.06 C93.63,25.06 93.15,24.99 92.85,24.99 C92.1534601,24.9864272 91.4577988,25.0399397 90.77,25.15 C90.1655283,25.2564475 89.5703611,25.4102548 88.99,25.61 L88.99,37.43 L82.86,37.43 L82.86,19.43 L88.99,19.43 L88.99,21.73 C89.860358,20.9795333 90.8420765,20.3689111 91.9,19.92 C92.7297554,19.5822289 93.6143359,19.3992123 94.51,19.38 L95.19,19.38 L95.86,19.43 L96.08,19.43 L96.07,25.24 Z M116.54,29.7 L103.67,29.7 C103.73358,30.7719663 104.263468,31.7623069 105.12,32.41 C106.348305,33.1730969 107.788414,33.5234885 109.23,33.41 C110.378409,33.4096521 111.517096,33.1995372 112.59,32.79 C113.506809,32.4624473 114.374774,32.0116438 115.17,31.45 L115.24,31.4 L116.19,31.4 L116.19,36.33 L116.04,36.39 C114.861957,36.8696312 113.643904,37.2444169 112.4,37.51 C111.154646,37.7511828 109.888465,37.8684218 108.62,37.86 C105.05,37.86 102.28,37.04 100.36,35.43 C98.3709528,33.6648976 97.301974,31.0846041 97.46,28.43 C97.3368527,25.7936368 98.3360391,23.2284528 100.21,21.37 C102.259395,19.5506758 104.943523,18.612848 107.68,18.76 C110.59,18.76 112.81,19.52 114.29,21 C115.86488,22.7459719 116.668876,25.0534069 116.52,27.4 L116.54,29.7 Z M152.9,45.92 L152.9,33.13 L157.63,33.13 L158.81,27.22 L152.9,27.22 L152.9,24.86 C152.9,22.5 154.08,21.32 156.44,21.32 L158.81,21.32 L158.81,15.41 L154.08,15.41 C149.74,15.41 147,18.81 147,23.68 L147,27.22 L142.3,27.22 L142.3,33.13 L147.03,33.13 L147.03,47.24 C146.63,47.24 146.24,47.3 145.84,47.3 C136.085089,47.3182006 127.913604,39.9204831 126.964493,30.2118367 C126.015383,20.5031904 132.599459,11.6629793 142.173207,9.79162349 C151.746955,7.92026763 161.175187,13.6305941 163.951704,22.982042 C166.728221,32.33349 161.943775,42.2636698 152.9,45.92 Z M192.35,47.32 C181.911818,47.32 173.45,38.8581818 173.45,28.42 C173.45,17.9818182 181.911818,9.52 192.35,9.52 C202.788182,9.52 211.25,17.9818182 211.25,28.42 C211.244499,38.8425731 202.802561,47.2934577 192.38,47.31 L192.35,47.32 Z M240.43,31.57 L232.1,31.57 L232.1,39.82 L227.32,39.82 L227.32,31.57 L219,31.57 L219,26.92 L227.32,26.92 L227.32,18.67 L232.1,18.67 L232.1,26.92 L240.43,26.92 L240.43,31.57 Z M267.07,47.31 L248.2,47.31 L252.56,40.48 C246.906429,33.6676563 246.738955,23.8438438 252.157037,16.842753 C257.57512,9.84166215 267.126827,7.53943823 275.139566,11.3033317 C283.152306,15.0672253 287.478832,23.8885918 285.549697,32.5285761 C283.620562,41.1685604 275.952733,47.3118281 267.1,47.31 L267.07,47.31 Z" id="Shape"></path>
                    <path d="M273.76,19.32 C273.35,19.23 272.93,19.18 272.52,19.13 L273.38,15.4 L267.72,15.4 L266.9,19.12 C265.345145,19.3209841 263.849668,19.8455931 262.51,20.66 C260.770218,21.6641711 259.710314,23.5314384 259.74,25.54 C259.725166,26.7266851 260.238048,27.8586871 261.14,28.63 C262.090469,29.3628246 263.178762,29.8967686 264.34,30.2 L265.47,25.3 C265.528654,25.0459262 265.602113,24.7954989 265.69,24.55 C265.812196,24.1045637 266.127874,23.737496 266.55,23.55 C267.399382,23.2331845 268.304642,23.0936519 269.21,23.14 C270.284884,23.136868 271.352799,23.3126008 272.37,23.66 C273.312884,23.9691151 274.19816,24.4320266 274.99,25.03 L275.05,25.03 L275.8,25.03 L276.92,20.24 L276.75,20.16 C275.791991,19.7571839 274.787624,19.4750204 273.76,19.32 L273.76,19.32 Z" id="Shape"></path>
                    <path d="M202.24,19.61 C201.38498,20.1384495 200.449301,20.5235304 199.47,20.75 C198.696686,19.8431815 197.571583,19.3115795 196.38,19.29 C195.190661,19.3290468 194.065982,19.8407131 193.255108,20.7116521 C192.444234,21.5825911 192.014103,22.7409057 192.06,23.93 C192.046837,24.2852153 192.073672,24.640784 192.14,24.99 C188.613873,24.7803726 185.361934,23.0189058 183.26,20.18 C182.852116,20.9011551 182.654639,21.7222416 182.69,22.55 C182.653615,24.0519784 183.351431,25.4774627 184.56,26.37 C183.870837,26.3570473 183.19764,26.1602665 182.61,25.8 L182.61,25.92 C182.582626,28.0401377 183.987003,29.9126407 186.03,30.48 C185.657607,30.5779405 185.274967,30.6316443 184.89,30.64 C184.617541,30.6530727 184.344638,30.6261193 184.08,30.56 C184.55008,32.3965927 186.18471,33.6961236 188.08,33.74 C186.600789,35.0046136 184.725902,35.7121179 182.78,35.74 C182.424853,35.7499682 182.069628,35.7231588 181.72,35.66 C183.653348,37.0211421 185.955646,37.7606683 188.32,37.78 C196.22,37.78 200.54,30.78 200.54,24.66 L200.54,24.09 C201.449597,23.3668945 202.221867,22.4862359 202.82,21.49 C202.061582,21.8889681 201.232916,22.1368887 200.38,22.22 C201.293464,21.6017482 201.953743,20.6752269 202.24,19.61 Z" id="Shape"></path>
                    <path d="M67.9,29.82 C67.4508925,29.943016 67.043256,30.1848343 66.72,30.52 C66.4481304,30.8474335 66.3089644,31.2649314 66.33,31.69 C66.3220977,31.9661736 66.352384,32.242115 66.42,32.51 C66.492296,32.7226253 66.6285045,32.9077291 66.81,33.04 C67.0324284,33.2352491 67.2954185,33.3786983 67.58,33.46 C68.0693005,33.5653097 68.5698552,33.6089823 69.07,33.59 C69.6251395,33.5844034 70.174427,33.4759021 70.69,33.27 C71.1838034,33.0770755 71.6456692,32.8107441 72.06,32.48 L72.06,29.22 C71.38,29.28 70.65,29.36 69.87,29.45 C69.2041638,29.5181777 68.5451989,29.6419427 67.9,29.82 L67.9,29.82 Z" id="Shape"></path>
                </g>
            </g>
        </g>
    </g>
</svg>

<svg xmlns="http://www.w3.org/2000/svg" viewBox="0 0 299.62 56.81"><defs><style>.a{fill:#ff9733;}.b{fill:#f93;}</style></defs><title>logo_sharpay_2_share_button</title><path class="a" d="M273.81,28.08a10.1,10.1,0,0,0-3-1.38L269.59,32a1.76,1.76,0,0,1-1,1.29,6.26,6.26,0,0,1-2.74.42,10.55,10.55,0,0,1-2.31-.25,11.26,11.26,0,0,1-1.89-.61,7.3,7.3,0,0,1-1.45-.73,7.56,7.56,0,0,1-.85-.64h-.85l-1.17,5,.17.08a14,14,0,0,0,3.29,1c.58.11,1.18.19,1.78.26l-.85,3.67h5.66l.86-3.73a11.57,11.57,0,0,0,4.35-1.51,5.48,5.48,0,0,0,2.79-4.83A3.84,3.84,0,0,0,273.81,28.08Z" transform="translate(0 0)"/><path class="a" d="M107.23,22.85a3.87,3.87,0,0,0-2.52.79,3.28,3.28,0,0,0-1.06,2.27h6.77a3.51,3.51,0,0,0-.8-2.24A3.14,3.14,0,0,0,107.23,22.85Z" transform="translate(0 0)"/><path class="a" d="M273.76,19.32c-.41-.09-.83-.14-1.24-.19l.86-3.73h-5.66l-.82,3.72a11.3,11.3,0,0,0-4.39,1.54,5.53,5.53,0,0,0-2.77,4.88,4,4,0,0,0,1.4,3.09,8.94,8.94,0,0,0,3.2,1.57l1.13-4.9a7.08,7.08,0,0,1,.22-.75,1.54,1.54,0,0,1,.86-1,6.51,6.51,0,0,1,2.66-.41,9.74,9.74,0,0,1,3.16.52A9,9,0,0,1,275,25h.81l1.12-4.79-.17-.08A12.91,12.91,0,0,0,273.76,19.32Z" transform="translate(0 0)"/><path class="a" d="M202.24,19.61a9.21,9.21,0,0,1-2.77,1.14,4.14,4.14,0,0,0-3.09-1.46,4.47,4.47,0,0,0-4.32,4.61v0a4.69,4.69,0,0,0,.08,1.06,11.92,11.92,0,0,1-8.88-4.81,4.36,4.36,0,0,0-.57,2.37,4.6,4.6,0,0,0,1.87,3.82,3.85,3.85,0,0,1-1.95-.57v.12A4.67,4.67,0,0,0,186,30.48a4.9,4.9,0,0,1-1.14.16,2.76,2.76,0,0,1-.81-.08,4.22,4.22,0,0,0,4,3.18,8.37,8.37,0,0,1-5.3,2,5.35,5.35,0,0,1-1.06-.08,11.65,11.65,0,0,0,6.6,2.12c7.9,0,12.22-7,12.22-13.12v-.57a9.62,9.62,0,0,0,2.28-2.6,6.57,6.57,0,0,1-2.44.73A4.61,4.61,0,0,0,202.24,19.61Z" transform="translate(0 0)"/><path class="a" d="M67.9,29.82a2.5,2.5,0,0,0-1.18.7,1.71,1.71,0,0,0-.39,1.17,2.83,2.83,0,0,0,.09.82,1.09,1.09,0,0,0,.39.53,1.94,1.94,0,0,0,.77.42,5.74,5.74,0,0,0,1.49.13,4.49,4.49,0,0,0,1.62-.32,5.2,5.2,0,0,0,1.37-.79V29.22c-.68.06-1.41.14-2.19.23A12,12,0,0,0,67.9,29.82Z" transform="translate(0 0)"/><path class="b" d="M291.28,0H8.34A8.33,8.33,0,0,0,0,8.34V48.47a8.33,8.33,0,0,0,8.32,8.34h283a8.33,8.33,0,0,0,8.34-8.32V8.34A8.33,8.33,0,0,0,291.28,0ZM32.9,36.21a12,12,0,0,1-6.81,1.71,19.39,19.39,0,0,1-4.3-.45,16.21,16.21,0,0,1-3.12-1l-.14-.07v-5h.91c.27.19.6.41,1,.64a9.75,9.75,0,0,0,1.53.73,12.81,12.81,0,0,0,2,.61,10.06,10.06,0,0,0,2.32.25,6,6,0,0,0,2.35-.34.92.92,0,0,0,.65-.86.74.74,0,0,0-.35-.72,6,6,0,0,0-1.7-.53q-.63-.13-1.68-.3a19.65,19.65,0,0,1-2-.4,7.19,7.19,0,0,1-3.67-2A5.1,5.1,0,0,1,18.67,25a5.23,5.23,0,0,1,2.5-4.41,11.62,11.62,0,0,1,6.7-1.72,17.61,17.61,0,0,1,3.83.4,15.74,15.74,0,0,1,2.86.87l.15.06v4.85h-.87a11.45,11.45,0,0,0-2.79-1.36,9.7,9.7,0,0,0-3.16-.53,5.88,5.88,0,0,0-2.2.36c-.78.31-.78.7-.78.83a.89.89,0,0,0,.33.76,5.19,5.19,0,0,0,1.88.61l1.84.33c.66.11,1.34.25,2,.42a6.6,6.6,0,0,1,3.41,1.9,4.88,4.88,0,0,1,1.12,3.26A5.35,5.35,0,0,1,32.9,36.21Zm23.91-10.5V37.43H50.67v-9a18.17,18.17,0,0,0-.11-2.09,4.15,4.15,0,0,0-.34-1.47,1.72,1.72,0,0,0-.8-.73,4.25,4.25,0,0,0-1.58-.24,4.68,4.68,0,0,0-1.48.24,7.92,7.92,0,0,0-1.54.7V37.38H38.69V12.58h6.13V21a14.2,14.2,0,0,1,2.53-1.53,7.53,7.53,0,0,1,3.17-.64,6.15,6.15,0,0,1,4.62,1.73A7.08,7.08,0,0,1,56.81,25.71Zm21.4-.43,0,12.15H72.11V35.82l-.73.53a8.29,8.29,0,0,1-1.31.79,8.53,8.53,0,0,1-1.77.58,11.19,11.19,0,0,1-2,.18A6.24,6.24,0,0,1,62,36.29a5.43,5.43,0,0,1-1.77-4.14,5.6,5.6,0,0,1,.91-3.28,6,6,0,0,1,2.54-2,13.76,13.76,0,0,1,3.94-1c1.47-.19,3-.34,4.57-.43a1.74,1.74,0,0,0-1-1.64,8.21,8.21,0,0,0-3.4-.54,10.24,10.24,0,0,0-2.9.48c-1,.33-1.79.58-2.25.76h-.85V19.82h.19c.6-.15,1.56-.34,2.92-.55a26.15,26.15,0,0,1,4.05-.35c3.24,0,5.62.51,7.07,1.52A5.5,5.5,0,0,1,78.21,25.28Zm17.86,0h-.74a5.91,5.91,0,0,0-1.18-.18c-.52,0-1-.07-1.3-.07a13.16,13.16,0,0,0-2.08.16,12.24,12.24,0,0,0-1.78.46V37.43H82.86v-18H89v2.3a11.09,11.09,0,0,1,2.91-1.81,7.29,7.29,0,0,1,2.61-.54h.68l.67.05h.22Zm9.05,7.17a6.83,6.83,0,0,0,4.11,1,9.39,9.39,0,0,0,3.36-.62,10.91,10.91,0,0,0,2.58-1.34l.07-.05h1v4.93l-.15.06a22.18,22.18,0,0,1-3.64,1.12,19.2,19.2,0,0,1-3.78.35c-3.57,0-6.34-.82-8.26-2.43a8.67,8.67,0,0,1-2.9-7,9.35,9.35,0,0,1,2.75-7.06,10.39,10.39,0,0,1,7.47-2.61c2.91,0,5.13.76,6.61,2.24a8.75,8.75,0,0,1,2.23,6.4l0,2.3H103.67A3.65,3.65,0,0,0,105.12,32.41ZM152.9,45.92V33.13h4.73l1.18-5.91H152.9V24.86q0-3.54,3.54-3.54h2.37V15.41h-4.73c-4.34,0-7.08,3.4-7.08,8.27v3.54h-4.7v5.91H147V47.24c-.4,0-.79.06-1.19.06a18.92,18.92,0,1,1,7.06-1.38Zm39.48,1.39h0a18.9,18.9,0,1,1,18.9-18.9A18.9,18.9,0,0,1,192.35,47.32Zm48.05-15.74H232.1v8.25h-4.78V31.57H219V26.92h8.32V18.67h4.78v8.25h8.33Zm43.12,6.09a18.86,18.86,0,0,1-25.68,7.2l-9.69,2.5,2.64-9.4a18.87,18.87,0,1,1,32.73-.3Z" transform="translate(0 0)"/></svg>
